COLOR/action 16/16/align-horizontal-right-out.svg

<svg viewBox="0 0 24 24" xmlns="http://www.w3.org/2000/svg"><g transform="matrix(0 -1 1 0 0 24)"><path d="m4 16v1 3h6v-1-3h-1z" fill="#1a7fd4"/><path d="m4 13v1h16v-1z" fill="#e95420"/><g fill="#c43ac4" transform="matrix(-1 0 0 -1 24 14)"><path d="m4 3v1 6h6v-1-6h-1z"/><path d="m14 4v6h5 1v-1-4-1h-1-4z"/></g><g transform="matrix(0 1 -1 0 24 0)"><path d="m4 9.5v.5h1 6v-.5h-6zm0 10v.5h1 4 1v-.5h-1-4zm9 0v.5h1v-.5zm3 0v.5h1 3v-.5h-3z" opacity=".2"/><path d="m4 4v.5h6 1v-.5h-1zm9 0v.5h1v-.5zm-9 10v.5h6v-.5zm12 0v.5h3 1v-.5h-1z" fill="#fff" opacity=".3"/></g></g></svg>

<?xml version="1.0" encoding="UTF-8" standalone="no"?>
<svg
   xmlns:dc="http://purl.org/dc/elements/1.1/"
   xmlns:cc="http://creativecommons.org/ns#"
   xmlns:rdf="http://www.w3.org/1999/02/22-rdf-syntax-ns#"
   xmlns:svg="http://www.w3.org/2000/svg"
   xmlns="http://www.w3.org/2000/svg"
   xmlns:sodipodi="http://sodipodi.sourceforge.net/DTD/sodipodi-0.dtd"
   xmlns:inkscape="http://www.inkscape.org/namespaces/inkscape"
   viewBox="0 0 24 24"
   version="1.1"
   id="svg14"
   sodipodi:docname="align-horizontal-right-out.svg"
   inkscape:version="0.92.4 (5da689c313, 2019-01-14)">
  <metadata
     id="metadata20">
    <rdf:RDF>
      <cc:Work
         rdf:about="">
        <dc:format>image/svg+xml</dc:format>
        <dc:type
           rdf:resource="http://purl.org/dc/dcmitype/StillImage" />
      </cc:Work>
    </rdf:RDF>
  </metadata>
  <defs
     id="defs18" />
  <sodipodi:namedview
     pagecolor="#ffffff"
     bordercolor="#666666"
     borderopacity="1"
     objecttolerance="10"
     gridtolerance="10"
     guidetolerance="10"
     inkscape:pageopacity="0"
     inkscape:pageshadow="2"
     inkscape:window-width="1920"
     inkscape:window-height="1016"
     id="namedview16"
     showgrid="false"
     inkscape:zoom="9.8333333"
     inkscape:cx="12"
     inkscape:cy="12"
     inkscape:window-x="0"
     inkscape:window-y="27"
     inkscape:window-maximized="1"
     inkscape:current-layer="g12" />
  <g
     transform="matrix(0 -1 1 0 0 24)"
     id="g12">
    <path
       d="m4 16v1 3h6v-1-3h-1z"
       fill="#1a7fd4"
       id="path2" />
    <path
       d="m4 13v1h16v-1z"
       id="path4"
       fill="#e95420" />
    <g
       fill="#c43ac4"
       transform="matrix(-1 0 0 -1 24 14)"
       id="g10">
      <path
         d="m4 3v1 6h6v-1-6h-1z"
         id="path6" />
      <path
         d="m14 4v6h5 1v-1-4-1h-1-4z"
         id="path8" />
    </g>
    <g
       id="g835"
       transform="rotate(180,14.694915,-10.033898)"
       style="fill:#c43ac4" />
    <path
       style="fill:#000000;fill-opacity:1;opacity:0.2"
       d="M 4 9.5 L 4 10 L 5 10 L 11 10 L 11 9.5 L 5 9.5 L 4 9.5 z M 4 19.5 L 4 20 L 5 20 L 9 20 L 10 20 L 10 19.5 L 9 19.5 L 5 19.5 L 4 19.5 z M 13 19.5 L 13 20 L 14 20 L 14 19.5 L 13 19.5 z M 16 19.5 L 16 20 L 17 20 L 20 20 L 20 19.5 L 17 19.5 L 16 19.5 z "
       transform="rotate(90,12,12)"
       id="path838" />
    <path
       style="fill:#ffffff;fill-opacity:1;opacity:0.3"
       d="M 4 4 L 4 4.5 L 10 4.5 L 11 4.5 L 11 4 L 10 4 L 4 4 z M 13 4 L 13 4.5 L 14 4.5 L 14 4 L 13 4 z M 4 14 L 4 14.5 L 10 14.5 L 10 14 L 4 14 z M 16 14 L 16 14.5 L 19 14.5 L 20 14.5 L 20 14 L 19 14 L 16 14 z "
       transform="rotate(90,12,12)"
       id="path842" />
  </g>
</svg>
